X:42
T: AFM WASSA BIN I GFOAHRN
N: E0656
O: Europa, Mitteleuropa, Deutschland, Oesterreich
R: Liebes - Lied
M: 3/4
L: 1/8
K: G
G2 | F2Acfa | bgd3
e | dcc2cF | G2BD
G2 | F2Acfa | bgd3
e | dcc2cF | G4

@@@ Tune index: 4355
